X: 11051
T: The KATZ MEOW
C: Bob McQuillen 19 July 2000
B: Bob's Note Book 11 #51
%R: reel
Z: 2020 John Chambers <jc:trillian.mit.edu>
M: C
L: 1/8
K: D
dB \
| A2AF Adfd | B2AF A2de | fafd edfe | dBAF E2dB |
| A2AF Adfd | B2AF Adfa | gfed ceag | f2d2 d2  :|
|: fg \
| agfg a2ag | fede f2dB | AFAd fagf | f2e2 e2fg |
| agfg a2ag | fdeg B2dB | Adfa gecd | e2d2 d2  :|
%%begintext align
%% Well, I don't think this
%% tune is _that_ good, but let's hope that Seattle Squeezer
%% Phil Katz thinks it is; if he does, it'll be time well
%% spent. If he doesn't, well, I tried. Anyway, always
%% best wishes to you, Phil - see you in the Spring!
%%endtext

%%sep 1 1 500

%%sep 1 1 500

